static/img/logo/olake-blue-with-text.svg

<svg width="144" height="42" viewBox="0 0 144 42" fill="none" xmlns="http://www.w3.org/2000/svg">
<path d="M41.7847 0L0 0L0 22.5483C17.3833 20.7163 41.72 20.2584 29.8 26.6705C21.7264 31.0135 27.2617 32.6158 32.1079 34.0187C35.2618 34.9317 38.1239 35.7602 36.7533 37.2047C33.9618 40.1466 39.4952 41.3169 41.7847 41.664V0Z" fill="#193AE6"/>
<path d="M66.0392 31.1852C64.0377 31.1852 62.2717 30.7437 60.7412 29.8607C59.2303 28.9581 58.0431 27.7121 57.1797 26.1227C56.336 24.5137 55.9141 22.6496 55.9141 20.5304C55.9141 18.4308 56.336 16.5863 57.1797 14.9969C58.0431 13.3879 59.2303 12.1321 60.7412 11.2295C62.2717 10.3269 64.0377 9.87554 66.0392 9.87554C68.0995 9.87554 69.8851 10.3269 71.396 11.2295C72.9265 12.1321 74.1137 13.3879 74.9574 14.9969C75.8012 16.5863 76.2231 18.4308 76.2231 20.5304C76.2231 22.6496 75.8012 24.5137 74.9574 26.1227C74.1137 27.7121 72.9265 28.9581 71.396 29.8607C69.8851 30.7437 68.0995 31.1852 66.0392 31.1852ZM66.0686 29.0072C67.5795 29.0072 68.904 28.6736 70.0421 28.0064C71.1998 27.3197 72.0926 26.3484 72.7205 25.0925C73.368 23.8171 73.6918 22.2964 73.6918 20.5304C73.6918 18.7644 73.368 17.2535 72.7205 15.9977C72.0926 14.7222 71.1998 13.7509 70.0421 13.0838C68.904 12.4166 67.5795 12.083 66.0686 12.083C64.5577 12.083 63.2234 12.4166 62.0657 13.0838C60.9276 13.7509 60.0348 14.7222 59.3872 15.9977C58.7593 17.2535 58.4454 18.7644 58.4454 20.5304C58.4454 22.2964 58.7593 23.8171 59.3872 25.0925C60.0348 26.3484 60.9276 27.3197 62.0657 28.0064C63.2234 28.6736 64.5577 29.0072 66.0686 29.0072ZM79.5893 30.832V10.2287H83.1213V28.0653H92.3044V30.832H79.5893ZM100.57 31.1852C99.3536 31.1852 98.343 30.9792 97.5385 30.5671C96.734 30.1551 96.1355 29.6056 95.7431 28.9189C95.3506 28.2321 95.1544 27.4864 95.1544 26.6819C95.1544 25.7401 95.3899 24.9258 95.8608 24.239C96.3514 23.5522 97.0676 23.0224 98.0094 22.6496C98.9513 22.2571 100.109 22.0609 101.483 22.0609H105.221C105.221 21.276 105.113 20.6285 104.897 20.1183C104.681 19.5885 104.347 19.1961 103.896 18.941C103.445 18.6859 102.866 18.5584 102.16 18.5584C101.355 18.5584 100.668 18.7448 100.099 19.1176C99.5302 19.4708 99.177 20.0202 99.0396 20.7659H95.5665C95.6842 19.7063 96.0374 18.8036 96.6261 18.058C97.2147 17.2927 97.9898 16.7041 98.9513 16.292C99.9324 15.8603 101.002 15.6445 102.16 15.6445C103.553 15.6445 104.74 15.8897 105.721 16.3803C106.702 16.8512 107.448 17.538 107.958 18.4406C108.488 19.3236 108.753 20.393 108.753 21.6489V30.832H105.75L105.397 28.4479C105.201 28.8404 104.946 29.2034 104.632 29.537C104.338 29.8705 103.994 30.1649 103.602 30.42C103.209 30.6554 102.758 30.8418 102.248 30.9792C101.757 31.1166 101.198 31.1852 100.57 31.1852ZM101.365 28.3891C101.934 28.3891 102.434 28.291 102.866 28.0947C103.317 27.8789 103.7 27.5846 104.014 27.2117C104.347 26.8193 104.602 26.3876 104.779 25.9167C104.956 25.4457 105.073 24.9454 105.132 24.4156V24.3567H101.865C101.178 24.3567 100.609 24.445 100.158 24.6216C99.7068 24.7786 99.383 25.0141 99.1868 25.328C98.9905 25.642 98.8924 26.005 98.8924 26.417C98.8924 26.8291 98.9905 27.1823 99.1868 27.4766C99.383 27.771 99.6675 27.9966 100.04 28.1536C100.413 28.3106 100.855 28.3891 101.365 28.3891ZM122.092 30.832L115.529 22.7084L121.415 15.9977H125.624L118.295 24.1507V21.4134L126.507 30.832H122.092ZM112.526 30.832V9.64007H116.058V30.832H112.526ZM134.649 31.1852C133.178 31.1852 131.883 30.8713 130.764 30.2434C129.646 29.5958 128.772 28.6932 128.145 27.5355C127.517 26.3778 127.203 25.0435 127.203 23.5326C127.203 21.9628 127.507 20.5893 128.115 19.4119C128.743 18.2346 129.616 17.3123 130.735 16.6452C131.873 15.978 133.187 15.6445 134.679 15.6445C136.131 15.6445 137.396 15.9682 138.476 16.6158C139.555 17.2633 140.389 18.1365 140.977 19.2353C141.566 20.3145 141.86 21.5311 141.86 22.885C141.86 23.0813 141.86 23.2971 141.86 23.5326C141.86 23.768 141.841 24.0133 141.802 24.2684H129.734V22.002H138.299C138.26 20.9228 137.897 20.0791 137.21 19.4708C136.523 18.8429 135.67 18.5289 134.649 18.5289C133.923 18.5289 133.256 18.6957 132.648 19.0293C132.04 19.3629 131.559 19.8632 131.206 20.5304C130.852 21.1779 130.676 22.002 130.676 23.0028V23.8563C130.676 24.7786 130.843 25.5733 131.176 26.2404C131.529 26.9076 132 27.4178 132.589 27.771C133.197 28.1045 133.874 28.2713 134.62 28.2713C135.444 28.2713 136.121 28.0947 136.651 27.7415C137.2 27.3883 137.602 26.9174 137.857 26.3287H141.448C141.174 27.251 140.722 28.0849 140.094 28.8306C139.467 29.5566 138.691 30.1354 137.769 30.5671C136.847 30.9792 135.807 31.1852 134.649 31.1852Z" fill="#193AE6"/>
</svg>

<svg xmlns="http://www.w3.org/2000/svg" width="144" height="42" fill="none" viewBox="0 0 144 42"><path fill="#193ae6" d="M41.785 0H0v22.548c17.383-1.832 41.72-2.29 29.8 4.123-8.074 4.343-2.538 5.945 2.308 7.348 3.154.913 6.016 1.741 4.645 3.186-2.791 2.942 2.742 4.112 5.032 4.459zM66.04 31.185q-3.003 0-5.299-1.324-2.266-1.355-3.561-3.738-1.266-2.414-1.266-5.593 0-3.15 1.266-5.533 1.294-2.415 3.561-3.767 2.296-1.354 5.298-1.354 3.09-.001 5.357 1.354 2.296 1.353 3.561 3.767 1.266 2.385 1.266 5.533 0 3.18-1.266 5.593a9.33 9.33 0 0 1-3.561 3.738q-2.265 1.324-5.357 1.324m.029-2.178q2.266 0 3.973-1 1.736-1.03 2.678-2.915.972-1.913.972-4.562t-.971-4.532q-.942-1.914-2.679-2.914-1.708-1-3.973-1.001-2.267 0-4.003 1-1.707 1.002-2.679 2.915-.942 1.883-.942 4.532t.942 4.563q.971 1.883 2.679 2.913 1.736 1.002 4.003 1.001m13.52 1.825V10.229h3.532v17.836h9.183v2.767zm20.981.353q-1.824 0-3.031-.618t-1.796-1.648a4.43 4.43 0 0 1-.589-2.237q0-1.413.707-2.443.736-1.03 2.148-1.59 1.413-.588 3.474-.588h3.738q0-1.178-.324-1.943-.324-.795-1.001-1.177-.677-.383-1.736-.383-1.208 0-2.061.56-.853.53-1.06 1.648h-3.472q.175-1.59 1.06-2.708.882-1.148 2.324-1.766 1.472-.648 3.209-.648 2.09 0 3.561.736 1.472.707 2.237 2.06.795 1.325.795 3.209v9.183h-3.003l-.353-2.384a4.6 4.6 0 0 1-.765 1.089 5 5 0 0 1-1.03.883 5.3 5.3 0 0 1-1.354.56 6.2 6.2 0 0 1-1.678.205m.795-2.796q.853 0 1.501-.294a3.4 3.4 0 0 0 1.148-.883 4.4 4.4 0 0 0 .765-1.295 6.2 6.2 0 0 0 .353-1.501v-.06h-3.267q-1.03 0-1.707.266-.677.235-.971.706a2 2 0 0 0-.295 1.089q0 .618.295 1.06.294.441.853.677.56.235 1.325.235m20.727 2.443-6.563-8.124 5.886-6.71h4.209l-7.329 8.153v-2.738l8.212 9.419zm-9.566 0V9.64h3.532v21.192zm22.123.353q-2.207 0-3.885-.942a6.8 6.8 0 0 1-2.619-2.707q-.942-1.737-.942-4.003 0-2.355.912-4.121a7 7 0 0 1 2.62-2.767q1.707-1 3.944-1 2.178 0 3.797.97a6.7 6.7 0 0 1 2.501 2.62q.883 1.62.883 3.65v.648q0 .352-.058.735h-12.068v-2.266h8.565q-.058-1.62-1.089-2.531-1.03-.942-2.561-.942-1.089 0-2.001.5t-1.442 1.501q-.53.972-.53 2.473v.853q0 1.384.5 2.384.53 1.002 1.413 1.531.912.5 2.031.5 1.236 0 2.031-.53a3.13 3.13 0 0 0 1.206-1.412h3.591a6.9 6.9 0 0 1-1.354 2.502 6.9 6.9 0 0 1-2.325 1.736q-1.383.618-3.12.618"/></svg>
